X:13
T:Parody
M:2/4
L:1/16
Z:jason
B: Bill Stroll, 1950
N: Often substituted when "Devil's Dream" was requested.
K:A
AB | cBAc fe2B | cBAc fe2c | dcBc defg | agfe dcBA |
cBAc fe2B | cBAc fe2c | dcBc defg | agbg a2 :|
|: !2!a!3!b | !4!c'eac' begb | agaf ecea | geBc defg | abaf edce |
!4!c'eac' begb | agaf ecea | geBc dcBG | AcBG A2 :|

